;FLAVOR:Marlin
;TIME:42948
;Filament used: 51.2021m
;Layer height: 0.2
;MINX:107.2
;MINY:92.2
;MINZ:0.2
;MAXX:192.8
;MAXY:207.8
;MAXZ:50
;TARGET_MACHINE.NAME:Creality CR-10S
;Generated with Cura_SteamEngine 5.7.1
M140 S50
M105
M190 S50
M104 S200
M105
M109 S200
M82 ;absolute extrusion mode
M201 X500.00 Y500.00 Z100.00 E5000.00 ;Setup machine max acceleration
M203 X500.00 Y500.00 Z10.00 E50.00 ;Setup machine max feedrate
M204 P500.00 R1000.00 T500.00 ;Setup Print/Retract/Travel acceleration
M205 X8.00 Y8.00 Z0.40 E5.00 ;Setup Jerk
M220 S100 ;Reset Feedrate
M221 S100 ;Reset Flowrate

G28 ;Home

G92 E0 ;Reset Extruder
G1 Z2.0 F3000 ;Move Z Axis up
G1 X10.1 Y20 Z0.28 F5000.0 ;Move to start position
G1 X10.1 Y200.0 Z0.28 F1500.0 E15 ;Draw the first line
G1 X10.4 Y200.0 Z0.28 F5000.0 ;Move to side a little
G1 X10.4 Y20 Z0.28 F1500.0 E30 ;Draw the second line
G92 E0 ;Reset Extruder
G1 Z2.0 F3000 ;Move Z Axis up

G92 E0
G92 E0
G1 F2700 E-5
;LAYER_COUNT:250
;LAYER:0
M107
G0 F6000 X108.719 Y95.223 Z0.2
;TYPE:SKIRT
G1 F2700 E0
G1 F1200 X110.28 Y93.764 E0.07107
G1 X112.303 Y92.557 E0.14942
G1 X114.021 Y92.275 E0.20732
G1 X185.853 Y92.2 E2.59647
G1 X187.749 Y92.666 E2.6614
G1 X189.777 Y93.719 E2.73741
G1 X191.236 Y95.28 E2.80847
G1 X192.443 Y97.303 E2.88682
G1 X192.725 Y99.021 E2.94473
G1 X192.8 Y200.853 E6.33168
G1 X192.334 Y202.749 E6.39661
G1 X191.281 Y204.777 E6.47262
G1 X189.72 Y206.236 E6.54368
G1 X187.697 Y207.443 E6.62203
G1 X185.979 Y207.725 E6.67994
G1 X114.147 Y207.8 E9.06908
G1 X112.251 Y207.334 E9.13402
G1 X110.223 Y206.281 E9.21002
G1 X108.764 Y204.72 E9.28109
G1 X107.557 Y202.697 E9.35944
G1 X107.275 Y200.979 E9.41735
G1 X107.2 Y99.147 E12.80429
G1 X107.666 Y97.251 E12.86923
G1 X108.719 Y95.223 E12.94523
G0 F6000 X109.042 Y95.468
G1 F1200 X110.519 Y94.088 E13.01246
G1 X112.443 Y92.94 E13.08698
G1 X114.086 Y92.67 E13.14236
G1 X185.807 Y92.6 E15.52781
G1 X187.606 Y93.042 E15.58943
G1 X189.532 Y94.042 E15.66161
G1 X190.912 Y95.519 E15.72884
G1 X192.06 Y97.443 E15.80336
G1 X192.33 Y99.086 E15.85874
G1 X192.4 Y200.807 E19.24199
G1 X191.958 Y202.606 E19.3036
G1 X190.958 Y204.532 E19.37578
G1 X189.481 Y205.912 E19.44301
G1 X187.557 Y207.06 E19.51753
G1 X185.914 Y207.33 E19.57291
G1 X114.193 Y207.4 E21.95836
G1 X112.394 Y206.958 E22.01998
G1 X110.468 Y205.958 E22.09216
G1 X109.088 Y204.481 E22.15939
G1 X107.94 Y202.557 E22.23391
G1 X107.67 Y200.914 E22.28929
G1 X107.6 Y99.193 E25.67254
G1 X108.042 Y97.394 E25.73415
G1 X109.042 Y95.468 E25.80633
G0 F6000 X109.365 Y95.713
G1 F1200 X110.761 Y94.409 E25.86987
G1 X112.581 Y93.323 E25.94036
G1 X114.151 Y93.065 E25.99328
G1 X185.76 Y93 E28.37501
G1 X187.464 Y93.419 E28.43337
G1 X189.287 Y94.365 E28.50168
G1 X190.591 Y95.761 E28.56522
G1 X191.677 Y97.581 E28.63571
G1 X191.935 Y99.151 E28.68863
G1 X192 Y200.76 E32.06816
G1 X191.581 Y202.464 E32.12652
G1 X190.635 Y204.287 E32.19483
G1 X189.239 Y205.591 E32.25837
G1 X187.419 Y206.677 E32.32886
G1 X185.849 Y206.935 E32.38178
G1 X114.24 Y207 E34.7635
G1 X112.536 Y206.581 E34.82187
G1 X110.713 Y205.635 E34.89018
G1 X109.409 Y204.239 E34.95371
G1 X108.323 Y202.419 E35.02421
G1 X108.065 Y200.849 E35.07712
G1 X108 Y99.24 E38.45665
G1 X108.419 Y97.536 E38.51502
G1 X109.365 Y95.713 E38.58333
G0 F6000 X109.688 Y95.958
G1 F1200 X111.003 Y94.73 E38.64317
G1 X112.719 Y93.706 E38.70964
G1 X114.216 Y93.46 E38.76009
G1 X185.714 Y93.4 E41.13813
G1 X187.321 Y93.795 E41.19317
G1 X189.042 Y94.688 E41.25766
G1 X190.27 Y96.003 E41.3175
G1 X191.294 Y97.719 E41.38396
G1 X191.54 Y99.216 E41.43442
G1 X191.6 Y200.714 E44.81026
G1 X191.205 Y202.321 E44.8653
G1 X190.312 Y204.042 E44.92979
G1 X188.997 Y205.27 E44.98963
G1 X187.281 Y206.294 E45.05609
G1 X185.784 Y206.54 E45.10655
G1 X114.286 Y206.6 E47.48458
G1 X112.679 Y206.205 E47.53962
G1 X110.958 Y205.312 E47.60411
G1 X109.73 Y203.997 E47.66395
G1 X108.706 Y202.281 E47.73042
G1 X108.46 Y200.784 E47.78088
G1 X108.4 Y99.286 E51.15671
G1 X108.795 Y97.679 E51.21175
G1 X109.688 Y95.958 E51.27624
G0 F6000 X110.011 Y96.203
G1 F1200 X111.245 Y95.051 E51.33239
G1 X112.857 Y94.089 E51.39483
G1 X114.281 Y93.855 E51.44282
G1 X185.668 Y93.8 E53.81717
G1 X187.178 Y94.171 E53.86888
G1 X188.797 Y95.011 E53.92955
G1 X189.949 Y96.245 E53.9857
G1 X190.911 Y97.857 E54.04813
G1 X191.145 Y99.281 E54.09613
G1 X191.2 Y200.668 E57.46828
G1 X190.829 Y202.178 E57.51999
G1 X189.989 Y203.797 E57.58066
G1 X188.755 Y204.949 E57.6368
G1 X187.143 Y205.911 E57.69924
G1 X185.719 Y206.145 E57.74724
G1 X114.332 Y206.2 E60.12158
G1 X112.822 Y205.829 E60.1733
G1 X111.203 Y204.989 E60.23396
G1 X110.051 Y203.755 E60.29011
G1 X109.089 Y202.143 E60.35255
G1 X108.855 Y200.719 E60.40055
G1 X108.8 Y99.332 E63.77269
G1 X109.171 Y97.822 E63.82441
G1 X110.011 Y96.203 E63.88507
G0 F6000 X110.334 Y96.448
G1 F1200 X111.487 Y95.372 E63.93753
G1 X112.995 Y94.472 E63.99594
G1 X114.346 Y94.25 E64.04147
G1 X185.621 Y94.2 E66.41209
G1 X187.036 Y94.548 E66.46055
G1 X188.552 Y95.334 E66.51735
G1 X189.628 Y96.487 E66.56981
G1 X190.528 Y97.995 E66.62822
G1 X190.75 Y99.346 E66.67375
G1 X190.8 Y200.621 E70.04217
G1 X190.452 Y202.036 E70.09064
G1 X189.666 Y203.552 E70.14743
G1 X188.513 Y204.628 E70.19989
G1 X187.005 Y205.528 E70.2583
G1 X185.654 Y205.75 E70.30384
G1 X114.379 Y205.8 E72.67445
G1 X112.964 Y205.452 E72.72292
G1 X111.448 Y204.666 E72.77971
G1 X110.372 Y203.513 E72.83217
G1 X109.472 Y202.005 E72.89058
G1 X109.25 Y200.654 E72.93612
G1 X109.2 Y99.379 E76.30454
G1 X109.548 Y97.964 E76.353
G1 X110.334 Y96.448 E76.4098
G0 F6000 X110.657 Y96.693
G1 F1200 X111.729 Y95.693 E76.45856
G1 X113.133 Y94.855 E76.51294
G1 X114.411 Y94.645 E76.55602
G1 X185.575 Y94.6 E78.92294
G1 X186.893 Y94.924 E78.96808
G1 X188.307 Y95.657 E79.02106
G1 X189.307 Y96.729 E79.06982
G1 X190.145 Y98.133 E79.1242
G1 X190.355 Y99.411 E79.16728
G1 X190.4 Y200.575 E82.532
G1 X190.076 Y201.893 E82.57715
G1 X189.343 Y203.307 E82.63012
G1 X188.271 Y204.307 E82.67888
G1 X186.867 Y205.145 E82.73326
G1 X185.589 Y205.355 E82.77634
G1 X114.425 Y205.4 E85.14326
G1 X113.107 Y205.076 E85.18841
G1 X111.693 Y204.343 E85.24138
G1 X110.693 Y203.271 E85.29014
G1 X109.855 Y201.867 E85.34452
G1 X109.645 Y200.589 E85.3876
G1 X109.6 Y99.425 E88.75233
G1 X109.924 Y98.107 E88.79747
G1 X110.657 Y96.693 E88.85044
G0 F6000 X110.979 Y96.94
G1 F1200 X111.974 Y96.012 E88.89569
G1 X113.271 Y95.238 E88.94593
G1 X114.476 Y95.04 E88.98655
G1 X185.529 Y95 E91.34978
G1 X186.75 Y95.3 E91.3916
G1 X188.06 Y95.979 E91.44067
G1 X188.988 Y96.974 E91.48593
G1 X189.762 Y98.271 E91.53616
G1 X189.96 Y99.476 E91.57678
G1 X190 Y200.529 E94.93782
G1 X189.7 Y201.75 E94.97963
G1 X189.021 Y203.06 E95.02871
G1 X188.026 Y203.988 E95.07396
G1 X186.729 Y204.762 E95.1242
G1 X185.524 Y204.96 E95.16481
G1 X114.471 Y205 E97.52805
G1 X113.25 Y204.7 E97.56987
G1 X111.94 Y204.021 E97.61894
G1 X111.012 Y203.026 E97.6642
G1 X110.238 Y201.729 E97.71443
G1 X110.04 Y200.524 E97.75505
G1 X110 Y99.471 E101.11608
G1 X110.3 Y98.25 E101.1579
G1 X110.979 Y96.94 E101.20698
G0 F6000 X111.301 Y97.187
G1 F1200 X112.216 Y96.334 E101.24858
G1 X113.411 Y95.621 E101.29487
G1 X114.541 Y95.435 E101.33296
G1 X185.483 Y95.4 E103.6925
G1 X186.607 Y95.676 E103.73099
G1 X187.813 Y96.301 E103.77617
G1 X188.666 Y97.216 E103.81778
G1 X189.379 Y98.411 E103.86406
G1 X189.565 Y99.541 E103.90215
G1 X189.6 Y200.483 E107.25949
G1 X189.324 Y201.607 E107.29799
G1 X188.699 Y202.813 E107.34317
G1 X187.784 Y203.666 E107.38477
G1 X186.589 Y204.379 E107.43106
G1 X185.459 Y204.565 E107.46915
G1 X114.517 Y204.6 E109.82869
G1 X113.393 Y204.324 E109.86718
G1 X112.187 Y203.699 E109.91236
G1 X111.334 Y202.784 E109.95397
G1 X110.621 Y201.589 E110.00025
G1 X110.435 Y200.459 E110.03834
G1 X110.4 Y99.517 E113.39568
G1 X110.676 Y98.393 E113.43418
G1 X111.301 Y97.187 E113.47936
G0 F6000 X111.623 Y97.434
G1 F1200 X112.458 Y96.656 E113.51732
G1 X113.551 Y96.004 E113.55965
G1 X114.606 Y95.83 E113.59521
G1 X185.436 Y95.8 E115.95103
G1 X186.465 Y96.053 E115.98627
G1 X187.566 Y96.623 E116.02751
G1 X188.344 Y97.458 E116.06546
G1 X188.996 Y98.551 E116.10779
G1 X189.17 Y99.606 E116.14336
G1 X189.2 Y200.436 E119.49698
G1 X188.947 Y201.465 E119.53222
G1 X188.377 Y202.566 E119.57346
G1 X187.542 Y203.344 E119.61142
G1 X186.449 Y203.996 E119.65375
G1 X185.394 Y204.17 E119.68931
G1 X114.564 Y204.2 E122.04513
G1 X113.535 Y203.947 E122.08037
G1 X112.434 Y203.377 E122.1216
G1 X111.656 Y202.542 E122.15956
G1 X111.004 Y201.449 E122.20189
G1 X110.83 Y200.394 E122.23746
G1 X110.8 Y99.564 E125.59108
G1 X111.053 Y98.535 E125.62632
G1 X111.623 Y97.434 E125.66756
G0 F6000 X111.945 Y97.681
G1 F1200 X112.7 Y96.978 E125.70187
G1 X113.691 Y96.387 E125.74025
G1 X114.671 Y96.225 E125.77328
G1 X185.39 Y96.2 E128.12541
G1 X186.322 Y96.429 E128.15733
G1 X187.319 Y96.945 E128.19467
G1 X188.022 Y97.7 E128.22898
G1 X188.613 Y98.691 E128.26735
G1 X188.775 Y99.671 E128.30039
G1 X188.8 Y200.39 E131.65032
G1 X188.571 Y201.322 E131.68224
G1 X188.055 Y202.319 E131.71958
G1 X187.3 Y203.022 E131.75389
G1 X186.309 Y203.613 E131.79227
G1 X185.329 Y203.775 E131.8253
G1 X114.61 Y203.8 E134.17743
G1 X113.678 Y203.571 E134.20935
G1 X112.681 Y203.055 E134.24669
G1 X111.978 Y202.3 E134.281
G1 X111.387 Y201.309 E134.31938
G1 X111.225 Y200.329 E134.35241
G1 X111.2 Y99.61 E137.70234
G1 X111.429 Y98.678 E137.73426
G1 X111.945 Y97.681 E137.7716
G0 F6000 X112.268 Y97.926
G1 F1200 X112.939 Y97.302 E137.80208
G1 X113.831 Y96.77 E137.83662
G1 X114.736 Y96.62 E137.86713
G1 X185.344 Y96.6 E140.21556
G1 X186.179 Y96.805 E140.24416
G1 X187.074 Y97.268 E140.27767
G1 X187.698 Y97.939 E140.30815
G1 X188.23 Y98.831 E140.34269
G1 X188.38 Y99.736 E140.37321
G1 X188.4 Y200.344 E143.71944
G1 X188.195 Y201.179 E143.74804
G1 X187.732 Y202.074 E143.78155
G1 X187.061 Y202.698 E143.81203
G1 X186.169 Y203.23 E143.84657
G1 X185.264 Y203.38 E143.87708
G1 X114.656 Y203.4 E146.22552
G1 X113.821 Y203.195 E146.25411
G1 X112.926 Y202.732 E146.28763
G1 X112.302 Y202.061 E146.31811
G1 X111.77 Y201.169 E146.35265
G1 X111.62 Y200.264 E146.38316
G1 X111.6 Y99.656 E149.7294
G1 X111.805 Y98.821 E149.75799
G1 X112.268 Y97.926 E149.79151
G0 F6000 X112.591 Y98.171
G1 F1200 X113.178 Y97.626 E149.81815
G1 X113.971 Y97.153 E149.84886
G1 X114.802 Y97.015 E149.87688
G1 X185.298 Y97 E152.22158
G1 X186.036 Y97.181 E152.24686
G1 X186.829 Y97.591 E152.27655
G1 X187.374 Y98.178 E152.30319
G1 X187.847 Y98.971 E152.3339
G1 X187.985 Y99.802 E152.36192
G1 X188 Y200.298 E155.70443
G1 X187.819 Y201.036 E155.7297
G1 X187.409 Y201.829 E155.7594
G1 X186.822 Y202.374 E155.78604
G1 X186.029 Y202.847 E155.81675
G1 X185.198 Y202.985 E155.84477
G1 X114.702 Y203 E158.18947
G1 X113.964 Y202.819 E158.21475
G1 X113.171 Y202.409 E158.24444
G1 X112.626 Y201.822 E158.27108
G1 X112.153 Y201.029 E158.30179
G1 X112.015 Y200.198 E158.32981
G1 X112 Y99.702 E161.67232
G1 X112.181 Y98.964 E161.69759
G1 X112.591 Y98.171 E161.72728
G0 F6000 X112.914 Y98.416
G1 F1200 X113.417 Y97.95 E161.75009
G1 X114.111 Y97.536 E161.77697
G1 X114.868 Y97.41 E161.80249
G1 X185.248 Y97.4 E164.14334
G1 X185.897 Y97.559 E164.16556
G1 X186.584 Y97.914 E164.19128
G1 X187.05 Y98.417 E164.21409
G1 X187.464 Y99.111 E164.24097
G1 X187.59 Y99.868 E164.26649
G1 X187.6 Y200.248 E167.60514
G1 X187.441 Y200.897 E167.62737
G1 X187.086 Y201.584 E167.65309
G1 X186.583 Y202.05 E167.67589
G1 X185.889 Y202.464 E167.70277
G1 X185.132 Y202.59 E167.7283
G1 X114.752 Y202.6 E170.06914
G1 X114.103 Y202.441 E170.09137
G1 X113.416 Y202.086 E170.11709
G1 X112.95 Y201.583 E170.13989
G1 X112.536 Y200.889 E170.16677
G1 X112.41 Y200.132 E170.1923
G1 X112.4 Y99.752 E173.53095
G1 X112.559 Y99.103 E173.55317
G1 X112.914 Y98.416 E173.57889
G0 F6000 X113.237 Y98.662
G1 F1200 X113.656 Y98.274 E173.59789
G1 X114.251 Y97.919 E173.62093
G1 X114.934 Y97.805 E173.64396
G1 X185.198 Y97.8 E175.98095
G1 X185.758 Y97.937 E176.00013
G1 X186.338 Y98.237 E176.02185
G1 X186.726 Y98.656 E176.04084
G1 X187.081 Y99.251 E176.06388
G1 X187.195 Y99.934 E176.08691
G1 X187.2 Y200.198 E179.42171
G1 X187.063 Y200.758 E179.44088
G1 X186.763 Y201.338 E179.4626
G1 X186.344 Y201.726 E179.4816
G1 X185.749 Y202.081 E179.50464
G1 X185.066 Y202.195 E179.52767
G1 X114.802 Y202.2 E181.86466
G1 X114.242 Y202.063 E181.88384
G1 X113.662 Y201.763 E181.90555
G1 X113.274 Y201.344 E181.92455
G1 X112.919 Y200.749 E181.94759
G1 X112.805 Y200.066 E181.97062
G1 X112.8 Y99.802 E185.30542
G1 X112.937 Y99.242 E185.32459
G1 X113.237 Y98.662 E185.34631
G0 F6000 X113.56 Y98.908
G1 F1200 X113.898 Y98.595 E185.36163
G1 X114.389 Y98.302 E185.38065
G1 X115 Y98.2 E185.40125
G1 X185.148 Y98.2 E187.73439
G1 X185.619 Y98.315 E187.75051
G1 X186.092 Y98.56 E187.76823
G1 X186.405 Y98.898 E187.78355
G1 X186.698 Y99.389 E187.80257
G1 X186.8 Y100 E187.82317
G1 X186.8 Y200.148 E191.15411
G1 X186.685 Y200.619 E191.17023
G1 X186.44 Y201.092 E191.18795
G1 X186.102 Y201.405 E191.20327
G1 X185.611 Y201.698 E191.22229
G1 X185 Y201.8 E191.24289
G1 X114.852 Y201.8 E193.57602
G1 X114.381 Y201.685 E193.59215
G1 X113.908 Y201.44 E193.60987
G1 X113.595 Y201.102 E193.62519
G1 X113.302 Y200.611 E193.64421
G1 X113.2 Y200 E193.66481
G1 X113.2 Y99.852 E196.99575
G1 X113.315 Y99.381 E197.01187
G1 X113.56 Y98.908 E197.02959
G0 F6000 X113.883 Y99.154
G1 F1200 X114.14 Y98.916 E197.04124
G1 X114.527 Y98.685 E197.05623
G1 X115 Y98.6 E197.07221
G1 X185.098 Y98.6 E199.40368
G1 X185.48 Y98.693 E199.41676
G1 X185.846 Y98.883 E199.43047
G1 X186.084 Y99.14 E199.44212
G1 X186.315 Y99.527 E199.45711
G1 X186.4 Y100 E199.4731
G1 X186.4 Y200.098 E202.80237
G1 X186.307 Y200.48 E202.81545
G1 X186.117 Y200.846 E202.82916
G1 X185.86 Y201.084 E202.84081
G1 X185.473 Y201.315 E202.8558
G1 X185 Y201.4 E202.87179
G1 X114.902 Y201.4 E205.20326
G1 X114.52 Y201.307 E205.21633
G1 X114.154 Y201.117 E205.23005
G1 X113.916 Y200.86 E205.2417
G1 X113.685 Y200.473 E205.25669
G1 X113.6 Y200 E205.27267
G1 X113.6 Y99.902 E208.60195
G1 X113.693 Y99.52 E208.61502
G1 X113.883 Y99.154 E208.62874
G0 F6000 X114.207 Y99.399
G1 F1200 X114.345 Y99.26 E208.63525
G1 X114.672 Y99.065 E208.64792
G1 X115 Y99 E208.65904
G1 X185.049 Y99 E210.98888
G1 X185.338 Y99.07 E210.99877
G1 X185.601 Y99.207 E211.00863
G1 X185.74 Y99.345 E211.01515
G1 X185.935 Y99.672 E211.02781
G1 X186 Y100 E211.03893
G1 X186 Y200.049 E214.36657
G1 X185.93 Y200.338 E214.37646
G1 X185.793 Y200.601 E214.38633
G1 X185.655 Y200.74 E214.39284
G1 X185.328 Y200.935 E214.4055
G1 X185 Y201 E214.41663
G1 X114.951 Y201 E216.74647
G1 X114.662 Y200.93 E216.75636
G1 X114.399 Y200.793 E216.76622
G1 X114.26 Y200.655 E216.77273
G1 X114.065 Y200.328 E216.7854
G1 X114 Y200 E216.79652
G1 X114 Y99.951 E220.12416
G1 X114.07 Y99.662 E220.13405
G1 X114.207 Y99.399 E220.14391
G0 F6000 X114.839 Y99.881
G1 F1200 X115 Y99.8 E220.14991
G1 X185 Y99.8 E222.47812
G1 X185.119 Y99.839 E222.48228
G1 X185.2 Y100 E222.48828
G1 X185.2 Y200 E225.81429
G1 X185.161 Y200.119 E225.81846
G1 X185 Y200.2 E225.82445
G1 X115 Y200.2 E228.15266
G1 X114.881 Y200.161 E228.15683
G1 X114.8 Y200 E228.16282
G1 X114.8 Y100 E231.48883
G1 X114.839 Y99.881 E231.493
G0 F6000 X114.459 Y99.756
G1 F1200 X114.55 Y99.604 E231.49889
G1 X114.82 Y99.443 E231.50935
G1 X115 Y99.4 E231.5155
G1 X185 Y99.4 E233.84371
G1 X185.244 Y99.459 E233.85206
G1 X185.396 Y99.55 E233.85795
G1 X185.557 Y99.82 E233.86841
G1 X185.6 Y100 E233.87456
G1 X185.6 Y200 E237.20058
G1 X185.541 Y200.244 E237.20893
G1 X185.45 Y200.396 E237.21482
G1 X185.18 Y200.557 E237.22527
G1 X185 Y200.6 E237.23143
G1 X115 Y200.6 E239.55964
G1 X114.756 Y200.541 E239.56799
G1 X114.604 Y200.45 E239.57388
G1 X114.443 Y200.18 E239.58434
G1 X114.4 Y200 E239.59049
G1 X114.4 Y100 E242.9165
G1 X114.459 Y99.756 E242.92485
G1 F2700 E237.92485
;MESH:helloworld.stl
G0 F6000 X115.8 Y100.8
G0 X184.4 Y199.4
;TYPE:WALL-INNER
G1 F2700 E242.92485
G1 F1200 X184.4 Y100.6 E246.21096
G1 X115.6 Y100.6 E248.49925
G1 X115.6 Y199.4 E251.78535
G1 X184.4 Y199.4 E254.07365
G0 F6000 X184.8 Y199.8
;TYPE:WALL-OUTER
G1 F1200 X184.8 Y100.2 E257.38636
G1 X115.2 Y100.2 E259.70127
G1 X115.2 Y199.8 E263.01398
G1 X184.8 Y199.8 E265.32888
G0 F6000 X184.53 Y199.53
G0 X184.3 Y199.04
